X: 110
M: 2/4
L: 1/16
K: D
vA,2vCE DF zuF | FFED FA z"4"A | vA,2vCE DF zuF | EDCE D2z"4"uD |
uf2 | vafge fd"4"ec | dcBA Bb zub | afge fd"4"ec | dcBA D3uf |
afge fd"4"ec | dcBA Bb z"2"b | "4"d'"1"a"2"b"2"g afge | fd"4"ec d2z2 |]


